src/assets/icons/verdict-icon.svg

<svg width="21" height="16" viewBox="0 0 21 16" fill="currentColor" xmlns="http://www.w3.org/2000/svg">
<rect width="21" height="16" rx="2" fill="currentColor"/>
<path d="M14.8568 6.39262L10.6193 2.15515C10.4092 1.94503 10.0688 1.94503 9.85871 2.15515L7.74016 4.2737C7.53004 4.48382 7.53004 4.82417 7.74016 5.0343L9.23409 6.52822L8.12047 7.64185L8.09319 7.61458C7.91303 7.43442 7.62146 7.43442 7.4413 7.61458L4.12731 10.929C3.94715 11.1091 3.94715 11.4007 4.12731 11.5808L5.37692 12.8305C5.55709 13.0106 5.84865 13.0106 6.02881 12.8305L9.34281 9.51646C9.52297 9.3363 9.52297 9.04474 9.34281 8.86458L9.31553 8.8373L10.4292 7.72367L11.9776 9.27215C12.1878 9.48228 12.5281 9.48228 12.7382 9.27215L14.8568 7.15361C15.0669 6.9431 15.0669 6.60275 14.8568 6.39262Z" fill="white"/>
<path d="M16.5962 12.9977H9.68164V11.7761C9.68164 11.4327 9.96014 11.1538 10.304 11.1538H15.9743C16.3177 11.1538 16.5966 11.4323 16.5966 11.7761V12.9977H16.5962Z" fill="white"/>
</svg>

<svg width="21" height="16" fill="currentColor" xmlns="http://www.w3.org/2000/svg"><rect width="21" height="16" rx="2"/><path d="M14.857 6.393l-4.238-4.238a.538.538 0 00-.76 0L7.74 4.274c-.21.21-.21.55 0 .76l1.494 1.494L8.12 7.642l-.027-.027a.46.46 0 00-.652 0l-3.314 3.314a.46.46 0 000 .652l1.25 1.25c.18.18.472.18.652 0l3.314-3.315a.46.46 0 000-.651l-.027-.028 1.113-1.113 1.549 1.548c.21.21.55.21.76 0l2.119-2.118c.21-.21.21-.551 0-.761zM16.596 12.998H9.682v-1.222c0-.343.278-.622.622-.622h5.67c.344 0 .623.278.623.622v1.222z" fill="#fff"/></svg>
